assets/whats.svg

<svg width="34" height="34" viewBox="0 0 34 34" fill="none" xmlns="http://www.w3.org/2000/svg">
<path d="M16.9448 33.2224C25.9352 33.2224 33.2233 25.9343 33.2233 16.944C33.2233 7.95364 25.9352 0.665527 16.9448 0.665527C7.95451 0.665527 0.666397 7.95364 0.666397 16.944C0.666397 25.9343 7.95451 33.2224 16.9448 33.2224Z" fill="url(#paint0_linear_529_1122)"/>
<path d="M8.26308 25.6265L9.48361 21.1676C8.73045 19.8624 8.3347 18.3829 8.33543 16.8657C8.3376 12.1225 12.1974 8.2627 16.9399 8.2627C19.2413 8.26342 21.4017 9.15983 23.0266 10.7862C24.6509 12.4126 25.5451 14.5744 25.5444 16.8737C25.5422 21.6176 21.6824 25.4775 16.9399 25.4775C15.5002 25.4767 14.0814 25.1157 12.8247 24.4299L8.26308 25.6265ZM13.0359 22.8722C14.2485 23.592 15.4061 24.0232 16.937 24.024C20.8786 24.024 24.0894 20.816 24.0916 16.8723C24.0931 12.9205 20.8974 9.71691 16.9428 9.71547C12.9983 9.71547 9.78964 12.9234 9.78819 16.8665C9.78747 18.4762 10.2592 19.6816 11.0514 20.9426L10.3286 23.5819L13.0359 22.8722ZM21.2743 18.919C21.2208 18.8293 21.0775 18.7758 20.8619 18.668C20.6471 18.5602 19.59 18.04 19.3925 17.9683C19.1957 17.8967 19.0525 17.8605 18.9085 18.0761C18.7653 18.291 18.3529 18.7758 18.2277 18.919C18.1025 19.0623 17.9767 19.0803 17.7618 18.9725C17.5469 18.8647 16.8538 18.6383 16.0326 17.9054C15.3938 17.3353 14.9619 16.6313 14.8367 16.4157C14.7115 16.2009 14.8237 16.0844 14.9308 15.9773C15.0277 15.8811 15.1456 15.7262 15.2534 15.6004C15.3627 15.4759 15.3981 15.3862 15.4705 15.2422C15.5421 15.099 15.5067 14.9731 15.4524 14.8653C15.3981 14.7582 14.9684 13.6997 14.7897 13.2693C14.6146 12.8504 14.4373 12.9068 14.3057 12.9003L13.8933 12.893C13.75 12.893 13.5171 12.9466 13.3203 13.1622C13.1235 13.3778 12.5678 13.8973 12.5678 14.9557C12.5678 16.0142 13.3384 17.0365 13.4454 17.1797C13.5532 17.323 14.9612 19.4949 17.1179 20.426C17.6308 20.6474 18.0316 20.7798 18.3435 20.879C18.8586 21.0425 19.3274 21.0193 19.6978 20.9643C20.111 20.9028 20.9697 20.4441 21.1492 19.942C21.3286 19.4392 21.3286 19.0087 21.2743 18.919Z" fill="white"/>
<defs>
<linearGradient id="paint0_linear_529_1122" x1="16.9448" y1="0.665527" x2="16.9448" y2="32.981" gradientUnits="userSpaceOnUse">
<stop stop-color="#9AABFF"/>
<stop offset="1" stop-color="#4262FF"/>
</linearGradient>
</defs>
</svg>

<svg width="34" height="34" fill="none" xmlns="http://www.w3.org/2000/svg"><path d="M16.945 33.222c8.99 0 16.278-7.288 16.278-16.278 0-8.99-7.288-16.278-16.278-16.278C7.955.666.666 7.954.666 16.944c0 8.99 7.289 16.278 16.279 16.278Z" fill="url(#a)"/><path d="m8.263 25.627 1.22-4.46a8.586 8.586 0 0 1-1.148-4.301c.003-4.743 3.862-8.603 8.605-8.603a8.55 8.55 0 0 1 6.087 2.523 8.554 8.554 0 0 1 2.517 6.088c-.002 4.744-3.862 8.604-8.604 8.604a8.611 8.611 0 0 1-4.115-1.048l-4.562 1.197Zm4.773-2.755c1.213.72 2.37 1.151 3.901 1.152 3.942 0 7.152-3.208 7.155-7.152a7.15 7.15 0 0 0-7.15-7.157c-3.944 0-7.152 3.208-7.154 7.151 0 1.61.471 2.816 1.263 4.077l-.722 2.639 2.707-.71Zm8.238-3.953c-.053-.09-.197-.143-.412-.251-.215-.108-1.272-.628-1.47-.7-.196-.071-.34-.108-.483.108-.144.215-.556.7-.681.843-.126.143-.251.161-.466.053-.215-.107-.908-.334-1.73-1.067-.638-.57-1.07-1.274-1.195-1.49-.126-.214-.013-.33.094-.438.097-.096.215-.25.322-.377.11-.124.145-.214.217-.358.072-.143.037-.269-.018-.377-.054-.107-.484-1.165-.662-1.596-.175-.419-.353-.362-.484-.369l-.413-.007a.788.788 0 0 0-.573.27c-.197.215-.752.734-.752 1.793 0 1.058.77 2.08.877 2.224.108.143 1.516 2.315 3.673 3.246.513.221.914.354 1.226.453.515.163.983.14 1.354.085.413-.061 1.272-.52 1.451-1.022.18-.503.18-.933.125-1.023Z" fill="#fff"/><defs><linearGradient id="a" x1="16.945" y1=".666" x2="16.945" y2="32.981" gradientUnits="userSpaceOnUse"><stop stop-color="#9AABFF"/><stop offset="1" stop-color="#4262FF"/></linearGradient></defs></svg>
